images/3232875.svg

<?xml version="1.0" encoding="UTF-8"?>
<svg xmlns="http://www.w3.org/2000/svg" xmlns:xlink="http://www.w3.org/1999/xlink" width="300pt" height="300pt" viewBox="0 0 300 300" version="1.1">
<defs>
<g>
<symbol overflow="visible" id="glyph0-0">
<path style="stroke:none;" d="M 0.546875 1.9375 L 0.546875 -7.75 L 6.046875 -7.75 L 6.046875 1.9375 Z M 1.171875 1.328125 L 5.4375 1.328125 L 5.4375 -7.140625 L 1.171875 -7.140625 Z M 1.171875 1.328125 "/>
</symbol>
<symbol overflow="visible" id="glyph0-1">
<path style="stroke:none;" d="M 1.078125 -8.015625 L 2.546875 -8.015625 L 6.09375 -1.3125 L 6.09375 -8.015625 L 7.15625 -8.015625 L 7.15625 0 L 5.6875 0 L 2.125 -6.703125 L 2.125 0 L 1.078125 0 Z M 1.078125 -8.015625 "/>
</symbol>
<symbol overflow="visible" id="glyph0-2">
<path style="stroke:none;" d="M 5.890625 -7.75 L 5.890625 -6.703125 C 5.472656 -6.898438 5.082031 -7.046875 4.71875 -7.140625 C 4.351562 -7.234375 4 -7.28125 3.65625 -7.28125 C 3.070312 -7.28125 2.617188 -7.164062 2.296875 -6.9375 C 1.972656 -6.707031 1.8125 -6.382812 1.8125 -5.96875 C 1.8125 -5.613281 1.914062 -5.34375 2.125 -5.15625 C 2.34375 -4.976562 2.75 -4.832031 3.34375 -4.71875 L 4 -4.59375 C 4.8125 -4.4375 5.410156 -4.160156 5.796875 -3.765625 C 6.179688 -3.378906 6.375 -2.863281 6.375 -2.21875 C 6.375 -1.4375 6.113281 -0.84375 5.59375 -0.4375 C 5.070312 -0.0390625 4.304688 0.15625 3.296875 0.15625 C 2.921875 0.15625 2.515625 0.109375 2.078125 0.015625 C 1.648438 -0.0664062 1.207031 -0.191406 0.75 -0.359375 L 0.75 -1.46875 C 1.195312 -1.21875 1.628906 -1.03125 2.046875 -0.90625 C 2.472656 -0.78125 2.890625 -0.71875 3.296875 -0.71875 C 3.921875 -0.71875 4.398438 -0.835938 4.734375 -1.078125 C 5.066406 -1.328125 5.234375 -1.675781 5.234375 -2.125 C 5.234375 -2.519531 5.113281 -2.828125 4.875 -3.046875 C 4.632812 -3.273438 4.238281 -3.445312 3.6875 -3.5625 L 3.03125 -3.6875 C 2.21875 -3.84375 1.628906 -4.09375 1.265625 -4.4375 C 0.898438 -4.78125 0.71875 -5.257812 0.71875 -5.875 C 0.71875 -6.582031 0.96875 -7.140625 1.46875 -7.546875 C 1.96875 -7.960938 2.660156 -8.171875 3.546875 -8.171875 C 3.921875 -8.171875 4.300781 -8.132812 4.6875 -8.0625 C 5.082031 -7.988281 5.484375 -7.882812 5.890625 -7.75 Z M 5.890625 -7.75 "/>
</symbol>
<symbol overflow="visible" id="glyph0-3">
<path style="stroke:none;" d="M 4.328125 -7.28125 C 3.546875 -7.28125 2.921875 -6.984375 2.453125 -6.390625 C 1.992188 -5.804688 1.765625 -5.007812 1.765625 -4 C 1.765625 -2.988281 1.992188 -2.1875 2.453125 -1.59375 C 2.921875 -1.007812 3.546875 -0.71875 4.328125 -0.71875 C 5.117188 -0.71875 5.742188 -1.007812 6.203125 -1.59375 C 6.660156 -2.1875 6.890625 -2.988281 6.890625 -4 C 6.890625 -5.007812 6.660156 -5.804688 6.203125 -6.390625 C 5.742188 -6.984375 5.117188 -7.28125 4.328125 -7.28125 Z M 4.328125 -8.171875 C 5.453125 -8.171875 6.351562 -7.789062 7.03125 -7.03125 C 7.707031 -6.28125 8.046875 -5.269531 8.046875 -4 C 8.046875 -2.738281 7.707031 -1.726562 7.03125 -0.96875 C 6.351562 -0.21875 5.453125 0.15625 4.328125 0.15625 C 3.203125 0.15625 2.300781 -0.21875 1.625 -0.96875 C 0.957031 -1.71875 0.625 -2.726562 0.625 -4 C 0.625 -5.269531 0.957031 -6.28125 1.625 -7.03125 C 2.300781 -7.789062 3.203125 -8.171875 4.328125 -8.171875 Z M 4.328125 -8.171875 "/>
</symbol>
</g>
</defs>
<g id="surface50073">
<rect x="0" y="0" width="300" height="300" style="fill:rgb(100%,100%,100%);fill-opacity:1;stroke:none;"/>
<path style="fill:none;stroke-width:1.2;stroke-linecap:butt;stroke-linejoin:miter;stroke:rgb(0%,0%,0%);stroke-opacity:1;stroke-miterlimit:10;" d="M 169.21875 210.324219 L 140.695312 211.984375 "/>
<path style="fill:none;stroke-width:1.2;stroke-linecap:butt;stroke-linejoin:miter;stroke:rgb(0%,0%,0%);stroke-opacity:1;stroke-miterlimit:10;" d="M 182.046875 184.792969 L 169.21875 210.324219 "/>
<path style="fill:none;stroke-width:1;stroke-linecap:butt;stroke-linejoin:miter;stroke:rgb(0%,0%,0%);stroke-opacity:1;stroke-miterlimit:10;" d="M 124.996094 188.109375 L 124.996094 188.109375 M 126.183594 190.863281 L 127.054688 190.289062 M 127.371094 193.617188 L 129.113281 192.472656 M 128.558594 196.375 L 131.171875 194.65625 M 129.746094 199.128906 L 133.230469 196.835938 M 130.933594 201.882812 L 135.289062 199.019531 M 132.121094 204.636719 L 137.347656 201.203125 M 133.308594 207.394531 L 139.40625 203.382812 M 134.496094 210.148438 L 141.464844 205.566406 M 135.683594 212.902344 L 143.523438 207.746094 M 136.480469 214.753906 L 144.90625 209.210938 "/>
<path style="fill:none;stroke-width:1.2;stroke-linecap:butt;stroke-linejoin:miter;stroke:rgb(0%,0%,0%);stroke-opacity:1;stroke-miterlimit:10;" d="M 124.996094 188.109375 L 109.570312 212.160156 "/>
<path style="fill:none;stroke-width:1.2;stroke-linecap:butt;stroke-linejoin:miter;stroke:rgb(0%,0%,0%);stroke-opacity:1;stroke-miterlimit:10;" d="M 124.996094 188.109375 L 137.824219 162.578125 "/>
<path style="fill:none;stroke-width:1.2;stroke-linecap:butt;stroke-linejoin:miter;stroke:rgb(0%,0%,0%);stroke-opacity:1;stroke-miterlimit:10;" d="M 106.890625 166.003906 L 124.996094 188.109375 "/>
<path style="fill:none;stroke-width:1.2;stroke-linecap:butt;stroke-linejoin:miter;stroke:rgb(0%,0%,0%);stroke-opacity:1;stroke-miterlimit:10;" d="M 109.570312 212.160156 L 81.929688 204.921875 "/>
<path style="fill:none;stroke-width:1.2;stroke-linecap:butt;stroke-linejoin:miter;stroke:rgb(0%,0%,0%);stroke-opacity:1;stroke-miterlimit:10;" d="M 81.929688 204.921875 L 81.101562 190.65625 "/>
<path style="fill:none;stroke-width:1.2;stroke-linecap:butt;stroke-linejoin:miter;stroke:rgb(0%,0%,100%);stroke-opacity:1;stroke-miterlimit:10;" d="M 81.101562 190.65625 L 80.273438 176.394531 "/>
<path style="fill:none;stroke-width:1.2;stroke-linecap:butt;stroke-linejoin:miter;stroke:rgb(0%,0%,100%);stroke-opacity:1;stroke-miterlimit:10;" d="M 80.273438 176.394531 L 93.582031 171.199219 "/>
<path style="fill:none;stroke-width:1.2;stroke-linecap:butt;stroke-linejoin:miter;stroke:rgb(0%,0%,0%);stroke-opacity:1;stroke-miterlimit:10;" d="M 93.582031 171.199219 L 106.890625 166.003906 "/>
<path style="fill:none;stroke-width:1.2;stroke-linecap:butt;stroke-linejoin:miter;stroke:rgb(0%,0%,100%);stroke-opacity:1;stroke-miterlimit:10;" d="M 80.273438 176.394531 L 68.25 168.683594 "/>
<path style="fill:none;stroke-width:1.2;stroke-linecap:butt;stroke-linejoin:miter;stroke:rgb(0%,0%,0%);stroke-opacity:1;stroke-miterlimit:10;" d="M 68.25 168.683594 L 56.222656 160.96875 "/>
<path style=" stroke:none;fill-rule:nonzero;fill:rgb(100%,100%,100%);fill-opacity:1;" d="M 76.273438 169.894531 L 84.273438 169.894531 L 84.273438 182.894531 L 76.273438 182.894531 Z M 76.273438 169.894531 "/>
<g style="fill:rgb(0%,0%,100%);fill-opacity:1;">
  <use xlink:href="#glyph0-1" x="76.273438" y="179.795898"/>
</g>
<path style="fill:none;stroke-width:1.2;stroke-linecap:butt;stroke-linejoin:miter;stroke:rgb(0%,0%,0%);stroke-opacity:1;stroke-miterlimit:10;" d="M 56.222656 160.96875 L 57.558594 132.429688 "/>
<path style="fill:none;stroke-width:1.2;stroke-linecap:butt;stroke-linejoin:miter;stroke:rgb(0%,0%,0%);stroke-opacity:1;stroke-miterlimit:10;" d="M 57.558594 132.429688 L 46.402344 123.5 "/>
<path style="fill:none;stroke-width:1.2;stroke-linecap:butt;stroke-linejoin:miter;stroke:rgb(0%,0%,100%);stroke-opacity:1;stroke-miterlimit:10;" d="M 46.402344 123.5 L 35.25 114.574219 "/>
<path style="fill:none;stroke-width:1.2;stroke-linecap:butt;stroke-linejoin:miter;stroke:rgb(0%,0%,0%);stroke-opacity:1;stroke-miterlimit:10;" d="M 59.527344 125.394531 L 50.605469 118.253906 "/>
<path style="fill:none;stroke-width:1.2;stroke-linecap:butt;stroke-linejoin:miter;stroke:rgb(0%,0%,100%);stroke-opacity:1;stroke-miterlimit:10;" d="M 50.605469 118.253906 L 41.683594 111.109375 "/>
<path style="fill:none;stroke-width:1.2;stroke-linecap:butt;stroke-linejoin:miter;stroke:rgb(80%,80%,0%);stroke-opacity:1;stroke-miterlimit:10;" d="M 81.429688 116.730469 L 69.492188 124.578125 "/>
<path style="fill:none;stroke-width:1.2;stroke-linecap:butt;stroke-linejoin:miter;stroke:rgb(0%,0%,0%);stroke-opacity:1;stroke-miterlimit:10;" d="M 69.492188 124.578125 L 57.558594 132.429688 "/>
<path style="fill:none;stroke-width:1.2;stroke-linecap:butt;stroke-linejoin:miter;stroke:rgb(0%,0%,100%);stroke-opacity:1;stroke-miterlimit:10;" d="M 35.25 114.574219 L 40.292969 101.207031 "/>
<path style="fill:none;stroke-width:1.2;stroke-linecap:butt;stroke-linejoin:miter;stroke:rgb(0%,0%,0%);stroke-opacity:1;stroke-miterlimit:10;" d="M 40.292969 101.207031 L 45.339844 87.839844 "/>
<path style=" stroke:none;fill-rule:nonzero;fill:rgb(100%,100%,100%);fill-opacity:1;" d="M 31.25 108.074219 L 39.25 108.074219 L 39.25 121.074219 L 31.25 121.074219 Z M 31.25 108.074219 "/>
<g style="fill:rgb(0%,0%,100%);fill-opacity:1;">
  <use xlink:href="#glyph0-1" x="31.25" y="117.975586"/>
</g>
<path style="fill:none;stroke-width:1.2;stroke-linecap:butt;stroke-linejoin:miter;stroke:rgb(0%,0%,0%);stroke-opacity:1;stroke-miterlimit:10;" d="M 45.339844 87.839844 L 73.878906 89.175781 "/>
<path style="fill:none;stroke-width:1.2;stroke-linecap:butt;stroke-linejoin:miter;stroke:rgb(0%,0%,0%);stroke-opacity:1;stroke-miterlimit:10;" d="M 47.878906 94.691406 L 70.710938 95.757812 "/>
<path style="fill:none;stroke-width:1.2;stroke-linecap:butt;stroke-linejoin:miter;stroke:rgb(0%,0%,0%);stroke-opacity:1;stroke-miterlimit:10;" d="M 73.878906 89.175781 L 77.65625 102.953125 "/>
<path style="fill:none;stroke-width:1.2;stroke-linecap:butt;stroke-linejoin:miter;stroke:rgb(80%,80%,0%);stroke-opacity:1;stroke-miterlimit:10;" d="M 77.65625 102.953125 L 81.429688 116.730469 "/>
<path style=" stroke:none;fill-rule:nonzero;fill:rgb(100%,100%,100%);fill-opacity:1;" d="M 78.429688 110.230469 L 85.429688 110.230469 L 85.429688 123.230469 L 78.429688 123.230469 Z M 78.429688 110.230469 "/>
<g style="fill:rgb(80%,80%,0%);fill-opacity:1;">
  <use xlink:href="#glyph0-2" x="78.429688" y="120.131836"/>
</g>
<path style="fill:none;stroke-width:1.2;stroke-linecap:butt;stroke-linejoin:miter;stroke:rgb(0%,0%,0%);stroke-opacity:1;stroke-miterlimit:10;" d="M 137.824219 162.578125 L 152.085938 161.75 "/>
<path style="fill:none;stroke-width:1.2;stroke-linecap:butt;stroke-linejoin:miter;stroke:rgb(0%,0%,100%);stroke-opacity:1;stroke-miterlimit:10;" d="M 152.085938 161.75 L 166.347656 160.917969 "/>
<path style="fill:none;stroke-width:1.2;stroke-linecap:butt;stroke-linejoin:miter;stroke:rgb(0%,0%,100%);stroke-opacity:1;stroke-miterlimit:10;" d="M 166.347656 160.917969 L 174.199219 172.855469 "/>
<path style="fill:none;stroke-width:1.2;stroke-linecap:butt;stroke-linejoin:miter;stroke:rgb(0%,0%,0%);stroke-opacity:1;stroke-miterlimit:10;" d="M 174.199219 172.855469 L 182.046875 184.792969 "/>
<path style="fill:none;stroke-width:1.2;stroke-linecap:butt;stroke-linejoin:miter;stroke:rgb(0%,0%,100%);stroke-opacity:1;stroke-miterlimit:10;" d="M 166.347656 160.917969 L 172.761719 148.152344 "/>
<path style="fill:none;stroke-width:1.2;stroke-linecap:butt;stroke-linejoin:miter;stroke:rgb(0%,0%,0%);stroke-opacity:1;stroke-miterlimit:10;" d="M 172.761719 148.152344 L 179.175781 135.386719 "/>
<path style=" stroke:none;fill-rule:nonzero;fill:rgb(100%,100%,100%);fill-opacity:1;" d="M 162.347656 154.417969 L 170.347656 154.417969 L 170.347656 167.417969 L 162.347656 167.417969 Z M 162.347656 154.417969 "/>
<g style="fill:rgb(0%,0%,100%);fill-opacity:1;">
  <use xlink:href="#glyph0-1" x="162.347656" y="164.319336"/>
</g>
<path style="fill:none;stroke-width:1.2;stroke-linecap:butt;stroke-linejoin:miter;stroke:rgb(0%,0%,0%);stroke-opacity:1;stroke-miterlimit:10;" d="M 181.984375 133.542969 L 174.136719 121.605469 "/>
<path style="fill:none;stroke-width:1.2;stroke-linecap:butt;stroke-linejoin:miter;stroke:rgb(100%,0%,0%);stroke-opacity:1;stroke-miterlimit:10;" d="M 174.136719 121.605469 L 166.289062 109.667969 "/>
<path style="fill:none;stroke-width:1.2;stroke-linecap:butt;stroke-linejoin:miter;stroke:rgb(0%,0%,0%);stroke-opacity:1;stroke-miterlimit:10;" d="M 176.367188 137.234375 L 168.519531 125.296875 "/>
<path style="fill:none;stroke-width:1.2;stroke-linecap:butt;stroke-linejoin:miter;stroke:rgb(100%,0%,0%);stroke-opacity:1;stroke-miterlimit:10;" d="M 168.519531 125.296875 L 160.671875 113.359375 "/>
<path style="fill:none;stroke-width:1.2;stroke-linecap:butt;stroke-linejoin:miter;stroke:rgb(0%,0%,0%);stroke-opacity:1;stroke-miterlimit:10;" d="M 179.175781 135.386719 L 207.699219 133.730469 "/>
<path style=" stroke:none;fill-rule:nonzero;fill:rgb(100%,100%,100%);fill-opacity:1;" d="M 154.480469 105.015625 L 163.480469 105.015625 L 163.480469 118.015625 L 154.480469 118.015625 Z M 154.480469 105.015625 "/>
<g style="fill:rgb(100%,0%,0%);fill-opacity:1;">
  <use xlink:href="#glyph0-3" x="154.480469" y="114.916992"/>
</g>
<path style="fill:none;stroke-width:1.2;stroke-linecap:butt;stroke-linejoin:miter;stroke:rgb(0%,0%,0%);stroke-opacity:1;stroke-miterlimit:10;" d="M 207.699219 133.730469 L 215.550781 145.667969 "/>
<path style="fill:none;stroke-width:1.2;stroke-linecap:butt;stroke-linejoin:miter;stroke:rgb(0%,0%,100%);stroke-opacity:1;stroke-miterlimit:10;" d="M 215.550781 145.667969 L 223.398438 157.605469 "/>
<path style="fill:none;stroke-width:1.2;stroke-linecap:butt;stroke-linejoin:miter;stroke:rgb(0%,0%,0%);stroke-opacity:1;stroke-miterlimit:10;" d="M 214.886719 132.425781 L 221.167969 141.976562 "/>
<path style="fill:none;stroke-width:1.2;stroke-linecap:butt;stroke-linejoin:miter;stroke:rgb(0%,0%,100%);stroke-opacity:1;stroke-miterlimit:10;" d="M 221.167969 141.976562 L 227.445312 151.523438 "/>
<path style="fill:none;stroke-width:1.2;stroke-linecap:butt;stroke-linejoin:miter;stroke:rgb(0%,0%,0%);stroke-opacity:1;stroke-miterlimit:10;" d="M 220.527344 108.199219 L 207.699219 133.730469 "/>
<path style="fill:none;stroke-width:1.2;stroke-linecap:butt;stroke-linejoin:miter;stroke:rgb(0%,0%,100%);stroke-opacity:1;stroke-miterlimit:10;" d="M 223.398438 157.605469 L 237.660156 156.777344 "/>
<path style="fill:none;stroke-width:1.2;stroke-linecap:butt;stroke-linejoin:miter;stroke:rgb(0%,0%,0%);stroke-opacity:1;stroke-miterlimit:10;" d="M 237.660156 156.777344 L 251.921875 155.949219 "/>
<path style=" stroke:none;fill-rule:nonzero;fill:rgb(100%,100%,100%);fill-opacity:1;" d="M 219.398438 151.105469 L 227.398438 151.105469 L 227.398438 164.105469 L 219.398438 164.105469 Z M 219.398438 151.105469 "/>
<g style="fill:rgb(0%,0%,100%);fill-opacity:1;">
  <use xlink:href="#glyph0-1" x="219.398438" y="161.006836"/>
</g>
<path style="fill:none;stroke-width:1.2;stroke-linecap:butt;stroke-linejoin:miter;stroke:rgb(0%,0%,0%);stroke-opacity:1;stroke-miterlimit:10;" d="M 251.921875 155.949219 L 264.75 130.417969 "/>
<path style="fill:none;stroke-width:1.2;stroke-linecap:butt;stroke-linejoin:miter;stroke:rgb(0%,0%,0%);stroke-opacity:1;stroke-miterlimit:10;" d="M 247.199219 150.378906 L 257.460938 129.953125 "/>
<path style="fill:none;stroke-width:1.2;stroke-linecap:butt;stroke-linejoin:miter;stroke:rgb(0%,0%,0%);stroke-opacity:1;stroke-miterlimit:10;" d="M 264.75 130.417969 L 256.902344 118.480469 "/>
<path style="fill:none;stroke-width:1.2;stroke-linecap:butt;stroke-linejoin:miter;stroke:rgb(0%,0%,100%);stroke-opacity:1;stroke-miterlimit:10;" d="M 256.902344 118.480469 L 249.050781 106.542969 "/>
<path style="fill:none;stroke-width:1.2;stroke-linecap:butt;stroke-linejoin:miter;stroke:rgb(0%,0%,100%);stroke-opacity:1;stroke-miterlimit:10;" d="M 249.050781 106.542969 L 234.789062 107.371094 "/>
<path style="fill:none;stroke-width:1.2;stroke-linecap:butt;stroke-linejoin:miter;stroke:rgb(0%,0%,0%);stroke-opacity:1;stroke-miterlimit:10;" d="M 234.789062 107.371094 L 220.527344 108.199219 "/>
<path style="fill:none;stroke-width:1.2;stroke-linecap:butt;stroke-linejoin:miter;stroke:rgb(0%,0%,100%);stroke-opacity:1;stroke-miterlimit:10;" d="M 246.589844 113.421875 L 235.179688 114.082031 "/>
<path style="fill:none;stroke-width:1.2;stroke-linecap:butt;stroke-linejoin:miter;stroke:rgb(0%,0%,0%);stroke-opacity:1;stroke-miterlimit:10;" d="M 235.179688 114.082031 L 223.769531 114.746094 "/>
<path style=" stroke:none;fill-rule:nonzero;fill:rgb(100%,100%,100%);fill-opacity:1;" d="M 245.050781 100.042969 L 253.050781 100.042969 L 253.050781 113.042969 L 245.050781 113.042969 Z M 245.050781 100.042969 "/>
<g style="fill:rgb(0%,0%,100%);fill-opacity:1;">
  <use xlink:href="#glyph0-1" x="245.050781" y="109.944336"/>
</g>
</g>
</svg>

<svg xmlns="http://www.w3.org/2000/svg" xmlns:xlink="http://www.w3.org/1999/xlink" width="300pt" height="300pt" viewBox="0 0 300 300"><defs><symbol overflow="visible"><path d="M.547 1.938V-7.75h5.5v9.688zm.625-.61h4.266v-8.47H1.171zm0 0"/></symbol><symbol overflow="visible" id="a"><path d="M1.078-8.016h1.47l3.546 6.704v-6.704h1.062V0H5.688L2.124-6.703V0H1.078zm0 0"/></symbol><symbol overflow="visible" id="b"><path d="M5.89-7.75v1.047c-.417-.195-.808-.344-1.17-.438-.368-.094-.72-.14-1.064-.14-.586 0-1.04.116-1.36.343-.323.23-.483.554-.483.968 0 .357.1.626.312.814.22.18.625.324 1.22.437L4-4.593c.813.157 1.41.434 1.797.828.383.387.578.903.578 1.547 0 .783-.262 1.376-.78 1.783-.525.398-1.29.593-2.298.593-.375 0-.78-.047-1.22-.14C1.648-.066 1.208-.19.75-.36v-1.11c.445.25.88.44 1.297.564.426.125.844.187 1.25.187.625 0 1.1-.116 1.437-.358.332-.25.5-.598.5-1.047 0-.395-.12-.703-.36-.922-.24-.226-.636-.398-1.186-.515l-.657-.126c-.81-.156-1.4-.406-1.764-.75C.898-4.78.72-5.258.72-5.875c0-.707.25-1.266.75-1.672.5-.414 1.19-.625 2.077-.625.375 0 .754.04 1.14.11.395.074.797.18 1.204.312zm0 0"/></symbol><symbol overflow="visible" id="c"><path d="M4.328-7.28c-.78 0-1.406.296-1.875.89-.46.585-.687 1.382-.687 2.39 0 1.012.226 1.813.687 2.406.47.586 1.094.875 1.875.875.79 0 1.414-.288 1.875-.874.457-.593.688-1.394.688-2.406 0-1.008-.23-1.805-.687-2.39-.46-.594-1.086-.89-1.875-.89zm0-.892c1.125 0 2.024.383 2.703 1.14C7.708-6.28 8.048-5.27 8.048-4c0 1.262-.34 2.273-1.016 3.03C6.353-.22 5.454.157 4.33.157S2.3-.22 1.625-.97c-.668-.75-1-1.757-1-3.03 0-1.27.332-2.28 1-3.03.676-.76 1.578-1.142 2.703-1.142zm0 0"/></symbol></defs><g><path fill="#fff" d="M0 0h300v300H0z"/><path d="M169.22 210.324l-28.525 1.66M182.047 184.793l-12.828 25.53" stroke-width="1.2" stroke="#000" stroke-miterlimit="10" fill="none"/><path d="M124.996 188.11m1.188 2.753l.87-.574m.317 3.327l1.743-1.144m-.554 3.902l2.612-1.72m-1.426 4.474l3.484-2.294m-2.296 5.047l4.355-2.863m-3.17 5.617l5.228-3.434m-4.04 6.192l6.098-4.012m-4.91 6.765l6.97-4.582m-5.782 7.336l7.84-5.156m-7.044 7.008l8.426-5.543" stroke="#000" stroke-miterlimit="10" fill="none"/><path d="M124.996 188.11l-15.426 24.05M124.996 188.11l12.828-25.532M106.89 166.004l18.106 22.105M109.57 212.16l-27.64-7.238M81.93 204.922l-.828-14.266" stroke-width="1.2" stroke="#000" stroke-miterlimit="10" fill="none"/><path d="M81.102 190.656l-.83-14.26M80.273 176.395l13.31-5.196" stroke-width="1.2" stroke="#00f" stroke-miterlimit="10" fill="none"/><path d="M93.582 171.2l13.31-5.196" stroke-width="1.2" stroke="#000" stroke-miterlimit="10" fill="none"/><path d="M80.273 176.395l-12.023-7.71" stroke-width="1.2" stroke="#00f" stroke-miterlimit="10" fill="none"/><path d="M68.25 168.684l-12.027-7.715" stroke-width="1.2" stroke="#000" stroke-miterlimit="10" fill="none"/><path d="M76.273 169.895h8v13h-8zm0 0" fill="#fff"/><use xlink:href="#a" x="76.273" y="179.796" fill="#00f"/><path d="M56.223 160.97l1.336-28.54M57.56 132.43L46.4 123.5" stroke-width="1.2" stroke="#000" stroke-miterlimit="10" fill="none"/><path d="M46.402 123.5l-11.152-8.926" stroke-width="1.2" stroke="#00f" stroke-miterlimit="10" fill="none"/><path d="M59.527 125.395l-8.922-7.14" stroke-width="1.2" stroke="#000" stroke-miterlimit="10" fill="none"/><path d="M50.605 118.254l-8.92-7.145" stroke-width="1.2" stroke="#00f" stroke-miterlimit="10" fill="none"/><path d="M81.43 116.73l-11.938 7.848" stroke-width="1.2" stroke="#cc0" stroke-miterlimit="10" fill="none"/><path d="M69.492 124.578L57.56 132.43" stroke-width="1.2" stroke="#000" stroke-miterlimit="10" fill="none"/><path d="M35.25 114.574l5.043-13.367" stroke-width="1.2" stroke="#00f" stroke-miterlimit="10" fill="none"/><path d="M40.293 101.207L45.34 87.84" stroke-width="1.2" stroke="#000" stroke-miterlimit="10" fill="none"/><path d="M31.25 108.074h8v13h-8zm0 0" fill="#fff"/><use xlink:href="#a" x="31.25" y="117.976" fill="#00f"/><path d="M45.34 87.84l28.54 1.336M47.88 94.69l22.83 1.068M73.88 89.176l3.776 13.777" stroke-width="1.2" stroke="#000" stroke-miterlimit="10" fill="none"/><path d="M77.656 102.953l3.774 13.777" stroke-width="1.2" stroke="#cc0" stroke-miterlimit="10" fill="none"/><path d="M78.43 110.23h7v13h-7zm0 0" fill="#fff"/><use xlink:href="#b" x="78.43" y="120.132" fill="#cc0"/><path d="M137.824 162.578l14.262-.828" stroke-width="1.2" stroke="#000" stroke-miterlimit="10" fill="none"/><path d="M152.086 161.75l14.262-.832M166.348 160.918l7.85 11.937" stroke-width="1.2" stroke="#00f" stroke-miterlimit="10" fill="none"/><path d="M174.2 172.855l7.847 11.938" stroke-width="1.2" stroke="#000" stroke-miterlimit="10" fill="none"/><path d="M166.348 160.918l6.414-12.766" stroke-width="1.2" stroke="#00f" stroke-miterlimit="10" fill="none"/><path d="M172.762 148.152l6.414-12.765" stroke-width="1.2" stroke="#000" stroke-miterlimit="10" fill="none"/><path d="M162.348 154.418h8v13h-8zm0 0" fill="#fff"/><use xlink:href="#a" x="162.348" y="164.319" fill="#00f"/><path d="M181.984 133.543l-7.847-11.938" stroke-width="1.2" stroke="#000" stroke-miterlimit="10" fill="none"/><path d="M174.137 121.605l-7.848-11.937" stroke-width="1.2" stroke="#f00" stroke-miterlimit="10" fill="none"/><path d="M176.367 137.234l-7.847-11.937" stroke-width="1.2" stroke="#000" stroke-miterlimit="10" fill="none"/><path d="M168.52 125.297l-7.848-11.938" stroke-width="1.2" stroke="#f00" stroke-miterlimit="10" fill="none"/><path d="M179.176 135.387l28.523-1.657" stroke-width="1.2" stroke="#000" stroke-miterlimit="10" fill="none"/><path d="M154.48 105.016h9v13h-9zm0 0" fill="#fff"/><use xlink:href="#c" x="154.48" y="114.917" fill="#f00"/><path d="M207.7 133.73l7.85 11.938" stroke-width="1.2" stroke="#000" stroke-miterlimit="10" fill="none"/><path d="M215.55 145.668l7.848 11.937" stroke-width="1.2" stroke="#00f" stroke-miterlimit="10" fill="none"/><path d="M214.887 132.426l6.28 9.55" stroke-width="1.2" stroke="#000" stroke-miterlimit="10" fill="none"/><path d="M221.168 141.977l6.277 9.546" stroke-width="1.2" stroke="#00f" stroke-miterlimit="10" fill="none"/><path d="M220.527 108.2L207.7 133.73" stroke-width="1.2" stroke="#000" stroke-miterlimit="10" fill="none"/><path d="M223.398 157.605l14.262-.828" stroke-width="1.2" stroke="#00f" stroke-miterlimit="10" fill="none"/><path d="M237.66 156.777l14.262-.828" stroke-width="1.2" stroke="#000" stroke-miterlimit="10" fill="none"/><path d="M219.398 151.105h8v13h-8zm0 0" fill="#fff"/><use xlink:href="#a" x="219.398" y="161.007" fill="#00f"/><path d="M251.922 155.95l12.828-25.532M247.2 150.38l10.26-20.427M264.75 130.418l-7.848-11.938" stroke-width="1.2" stroke="#000" stroke-miterlimit="10" fill="none"/><path d="M256.902 118.48l-7.85-11.937M249.05 106.543l-14.26.828" stroke-width="1.2" stroke="#00f" stroke-miterlimit="10" fill="none"/><path d="M234.79 107.37l-14.263.83" stroke-width="1.2" stroke="#000" stroke-miterlimit="10" fill="none"/><path d="M246.59 113.422l-11.41.66" stroke-width="1.2" stroke="#00f" stroke-miterlimit="10" fill="none"/><path d="M235.18 114.082l-11.41.664" stroke-width="1.2" stroke="#000" stroke-miterlimit="10" fill="none"/><path d="M245.05 100.043h8v13h-8zm0 0" fill="#fff"/><use xlink:href="#a" x="245.051" y="109.944" fill="#00f"/></g></svg>
